src/xmb/monochrome/core-options.svg

<?xml version="1.0" encoding="UTF-8" standalone="no"?>
<!-- Generator: Adobe Illustrator 16.0.0, SVG Export Plug-In . SVG Version: 6.00 Build 0)  -->

<svg
   xmlns:dc="http://purl.org/dc/elements/1.1/"
   xmlns:cc="http://creativecommons.org/ns#"
   xmlns:rdf="http://www.w3.org/1999/02/22-rdf-syntax-ns#"
   xmlns:svg="http://www.w3.org/2000/svg"
   xmlns="http://www.w3.org/2000/svg"
   xmlns:sodipodi="http://sodipodi.sourceforge.net/DTD/sodipodi-0.dtd"
   xmlns:inkscape="http://www.inkscape.org/namespaces/inkscape"
   version="1.1"
   id="svg2"
   inkscape:export-filename="/media/alfrix/DATOS/xmb/menu_core.png"
   inkscape:export-xdpi="384"
   inkscape:version="0.92.3 (2405546, 2018-03-11)"
   inkscape:export-ydpi="384"
   sodipodi:docname="core-options.svg"
   x="0px"
   y="0px"
   width="64px"
   height="64px"
   viewBox="0 128 64 64"
   enable-background="new 0 128 64 64"
   xml:space="preserve"><metadata
   id="metadata8"><rdf:RDF><cc:Work
       rdf:about=""><dc:format>image/svg+xml</dc:format><dc:type
         rdf:resource="http://purl.org/dc/dcmitype/StillImage" /><dc:title></dc:title></cc:Work></rdf:RDF></metadata><defs
   id="defs6" /><sodipodi:namedview
   pagecolor="#808080"
   bordercolor="#666666"
   borderopacity="1"
   objecttolerance="10"
   gridtolerance="10"
   guidetolerance="10"
   inkscape:pageopacity="0"
   inkscape:pageshadow="2"
   inkscape:window-width="1024"
   inkscape:window-height="705"
   id="namedview4"
   showgrid="true"
   inkscape:zoom="5.2149125"
   inkscape:cx="52.904011"
   inkscape:cy="13.494283"
   inkscape:window-x="-8"
   inkscape:window-y="-8"
   inkscape:window-maximized="1"
   inkscape:current-layer="svg2"><inkscape:grid
     type="xygrid"
     id="grid815" /></sodipodi:namedview>
<path
   style="fill:#ffffff;stroke-width:1"
   d="M 45.501953 16.003906 C 38.798828 16.11472 20.923828 18.28516 20.923828 38.285156 L 25.845703 43.208984 C 47.999549 43.208984 48 16.0625 48 16.0625 C 48 16.0625 47.048828 15.978334 45.501953 16.003906 z M 38.154297 22.285156 C 39.513066 22.285156 40.615234 23.389277 40.615234 24.748047 C 40.615234 26.106817 39.513066 27.208984 38.154297 27.208984 C 36.795528 27.208984 35.691406 26.106817 35.691406 24.748047 C 35.691406 23.389277 36.795528 22.285156 38.154297 22.285156 z M 23.302734 24.876953 C 18.113811 25.822183 16 32 16 32 C 16 32 18.5369 31.627509 20.353516 31.917969 C 20.941824 29.280429 21.930426 26.934803 23.302734 24.876953 z M 30.025391 29.357422 C 30.387634 29.357422 30.7397 29.399162 31.080078 29.476562 L 31.164062 30.503906 C 31.793638 30.698786 32.358688 31.052331 32.820312 31.519531 L 34 30.9375 C 34.472555 31.48949 34.776 32.318042 34.994141 33.044922 L 33.958984 33.609375 C 34.034017 33.934375 34.074219 34.27526 34.074219 34.625 C 34.07422 34.97476 34.034014 35.313162 33.958984 35.638672 L 34.994141 36.205078 C 34.776001 36.931938 34.472555 37.758547 34 38.310547 L 32.820312 37.728516 C 32.358688 38.195706 31.793637 38.549261 31.164062 38.744141 L 31.080078 39.771484 C 30.7397 39.849474 30.387634 39.890625 30.025391 39.890625 C 29.663149 39.890625 29.310122 39.848884 28.96875 39.771484 L 28.884766 38.744141 C 28.256183 38.549251 27.692093 38.195716 27.230469 37.728516 L 26.048828 38.310547 C 25.575776 37.758547 25.275277 36.931938 25.056641 36.205078 L 26.089844 35.638672 C 26.015808 35.313162 25.974609 34.97476 25.974609 34.625 C 25.974609 34.27526 26.015804 33.934375 26.089844 33.609375 L 25.056641 33.044922 C 25.275277 32.318042 25.575776 31.48949 26.048828 30.9375 L 27.230469 31.519531 C 27.692093 31.052351 28.256183 30.698796 28.884766 30.503906 L 28.96875 29.476562 C 29.310122 29.398573 29.663149 29.357422 30.025391 29.357422 z M 30.025391 32.515625 C 28.927731 32.515625 28.037109 33.459027 28.037109 34.623047 C 28.037109 35.785527 28.927731 36.728516 30.025391 36.728516 C 31.123051 36.728516 32.011719 35.785527 32.011719 34.623047 C 32.011719 33.459027 31.123051 32.515625 30.025391 32.515625 z M 39.140625 40.138672 C 37.215702 41.663592 34.916624 42.876474 32.185547 43.621094 C 32.533855 45.445094 32 48 32 48 C 32 48 37.896317 45.170052 39.140625 40.138672 z M 20.556641 41.277344 C 18.449219 41.57482 17.230469 46.769531 17.230469 46.769531 C 17.230469 46.769531 25.23122 45.055436 22.154297 41.978516 C 21.577374 41.401593 21.042969 41.208695 20.556641 41.277344 z "
   transform="translate(0,128)"
   id="Games_1_" />
</svg>

<svg xmlns="http://www.w3.org/2000/svg" xml:space="preserve" width="64" height="64" viewBox="0 128 64 64"><path d="M45.502 16.004c-6.703.11-24.578 2.281-24.578 22.281l4.922 4.924C48 43.209 48 16.062 48 16.062s-.951-.084-2.498-.058m-7.348 6.281a2.463 2.463 0 0 1 0 4.924 2.463 2.463 0 0 1 0-4.924m-14.851 2.592C18.113 25.822 16 32 16 32s2.537-.372 4.354-.082c.588-2.638 1.576-4.983 2.949-7.041m6.722 4.48q.545.002 1.055.12l.084 1.027c.63.195 1.195.548 1.656 1.016l1.18-.582c.473.551.776 1.38.994 2.107l-1.035.564a4.5 4.5 0 0 1 0 2.03l1.035.566c-.218.727-.521 1.554-.994 2.106l-1.18-.582a4 4 0 0 1-1.656 1.015l-.084 1.027a4.7 4.7 0 0 1-2.111 0l-.084-1.027a4 4 0 0 1-1.655-1.015l-1.181.582c-.473-.552-.774-1.38-.992-2.106l1.033-.566a4.56 4.56 0 0 1 0-2.03l-1.033-.564c.218-.727.519-1.556.992-2.108l1.181.583a4 4 0 0 1 1.655-1.016l.084-1.027q.512-.118 1.056-.12m0 3.159c-1.097 0-1.988.943-1.988 2.107 0 1.163.89 2.106 1.988 2.106s1.987-.943 1.987-2.106c0-1.164-.889-2.107-1.987-2.107m9.116 7.623c-1.925 1.525-4.224 2.737-6.955 3.482C32.534 45.445 32 48 32 48s5.896-2.83 7.14-7.861m-18.584 1.138c-2.108.298-3.327 5.493-3.327 5.493s8.001-1.715 4.924-4.791c-.577-.577-1.111-.77-1.597-.702" style="fill:#fff;stroke-width:1" transform="translate(0 128)"/></svg>
